X: 210
%
U:~=!turn!
T: The Gordons Ha'e the Girding O't
C:
O:Scotland
B:Keith Norman MacDonald : "The Skye collection of the best reels & strathspeys extant" : 1887
Z:Ralph Palmer
R:Strathspey
M:C
L:1/8
K:D
(A/2B/4c/4) | d<DF>A d<D (DB/2c/2) | d<DF>A e<EE>c | d<DF>A d<gTf>e | (d/2c/2B/2A/2) B>c d<DD::
(f/2g/2) | a>f{/f}g>e f<d df/2g/2 | a>fg>f e<EE>g | a>fg>e f>de>c | (d/2c/2B/2A/2) B>c d<DD :|


